X:156
T:Schottis fr Haver\"o
R:Schottische
O:Sweden
M:4/4
A:H\"arjedalen
K:Dm
D2DE FGFE | D2A2 A4 |\
d^cde f2f2 |1efe^c A2A2 :|2 e2 {g}e^c d3 :|*
|:f |\
a2a^g a2a2 | fg (3f/g/f/e f2f2 |1\
e2{f}e^c A2A2 | {G}FGFE (3E/F/E/D D2 :|2\
e2 {g}e^c Acec | d2d2d2:|**
